symbols/web/hdr_enhanced_select/materialsymbolssharp/hdr_enhanced_select_wght600gradN25fill1_24px.svg

<svg xmlns="http://www.w3.org/2000/svg" height="24" width="24"><path d="M12 14.15q-2.6 0-4.45-1.838Q5.7 10.475 5.7 7.875 5.7 5.25 7.55 3.4 9.4 1.55 12 1.55t4.45 1.85q1.85 1.85 1.85 4.45 0 2.625-1.85 4.462Q14.6 14.15 12 14.15Zm-.925-3.375h1.875V8.8h1.975V6.925H12.95V4.95h-1.875v1.975H9.1V8.8h1.975Zm9.325 11.25V20.3h-1.775v-1.675H20.4V16.9h1.625v1.725H23.8V20.3h-1.775v1.725Zm-7.375.125V16.3h5.05v3.85h-.825l.925 2h-1.7l-.8-1.725H14.65v1.725Zm1.625-3.275h1.8v-.95h-1.8ZM.2 22.15V16.3h1.625v2.025H3.65V16.3h1.625v5.85H3.65v-2.3H1.825v2.3Zm6.425 0V16.3h3.425q.7 0 1.163.475.462.475.462 1.15v2.6q0 .675-.462 1.15-.463.475-1.163.475Zm1.625-1.625h1.8v-2.6h-1.8Z"/></svg>

<svg xmlns="http://www.w3.org/2000/svg" height="24" width="24"><path d="M12 14.15Q9.4 14.15 7.55 12.312Q5.7 10.475 5.7 7.875Q5.7 5.25 7.55 3.4Q9.4 1.55 12 1.55Q14.6 1.55 16.45 3.4Q18.3 5.25 18.3 7.85Q18.3 10.475 16.45 12.312Q14.6 14.15 12 14.15ZM11.075 10.775H12.95V8.8H14.925V6.925H12.95V4.95H11.075V6.925H9.1V8.8H11.075ZM20.4 22.025V20.3H18.625V18.625H20.4V16.9H22.025V18.625H23.8V20.3H22.025V22.025ZM13.025 22.15V16.3H18.075V20.15H17.25L18.175 22.15H16.475L15.675 20.425H14.65V22.15ZM14.65 18.875H16.45V17.925H14.65ZM0.2 22.15V16.3H1.825V18.325H3.65V16.3H5.275V22.15H3.65V19.85H1.825V22.15ZM6.625 22.15V16.3H10.05Q10.75 16.3 11.213 16.775Q11.675 17.25 11.675 17.925V20.525Q11.675 21.2 11.213 21.675Q10.75 22.15 10.05 22.15ZM8.25 20.525H10.05Q10.05 20.525 10.05 20.525Q10.05 20.525 10.05 20.525V17.925Q10.05 17.925 10.05 17.925Q10.05 17.925 10.05 17.925H8.25Z"/></svg>
